X: 1
T: Rakish Paddy (Donegal Setting)
M: 4/4
L: 1/8
R: reel
K: Dmix
|:cded ~c2Bc|AcGc AD~D2|Add^c d3e|fd (3efg fded|
cded ~c2Bc|AcG=F ED^CE|D^CDE =FAdB|1 cAGE EDDB:|2 cAGc ADgf||
efgb (3agf gB|gagf ed^ce|d2ad bdad|abag fedf|
efgb (3agf gB|gagf ed^ce|defg abaf|~g2ag fddf|
efgb (3agf gB|gagf ed^ce|d2ad bdad|abag fdAB|
c2gc acgc|gagf ed^ce|defg abaf|~g2ag fged||
